polaris-icons/icons/newicons/LogoBlockMajor.svg

<svg width="20" height="20" viewBox="0 0 20 20" fill="none" xmlns="http://www.w3.org/2000/svg">
<path d="M3 5.75C3 4.23122 4.23122 3 5.75 3C6.16421 3 6.5 3.33579 6.5 3.75C6.5 4.16421 6.16421 4.5 5.75 4.5C5.05964 4.5 4.5 5.05964 4.5 5.75C4.5 6.16421 4.16421 6.5 3.75 6.5C3.33579 6.5 3 6.16421 3 5.75Z" fill="black"/>
<path d="M5.75 17C4.23122 17 3 15.7688 3 14.25C3 13.8358 3.33579 13.5 3.75 13.5C4.16421 13.5 4.5 13.8358 4.5 14.25C4.5 14.9404 5.05964 15.5 5.75 15.5C6.16421 15.5 6.5 15.8358 6.5 16.25C6.5 16.6642 6.16421 17 5.75 17Z" fill="black"/>
<path d="M17 5.75C17 4.23122 15.7688 3 14.25 3C13.8358 3 13.5 3.33579 13.5 3.75C13.5 4.16421 13.8358 4.5 14.25 4.5C14.9404 4.5 15.5 5.05964 15.5 5.75C15.5 6.16421 15.8358 6.5 16.25 6.5C16.6642 6.5 17 6.16421 17 5.75Z" fill="black"/>
<path d="M17 14.25C17 15.7688 15.7688 17 14.25 17C13.8358 17 13.5 16.6642 13.5 16.25C13.5 15.8358 13.8358 15.5 14.25 15.5C14.9404 15.5 15.5 14.9404 15.5 14.25C15.5 13.8358 15.8358 13.5 16.25 13.5C16.6642 13.5 17 13.8358 17 14.25Z" fill="black"/>
<path d="M4.5 9C4.5 8.58579 4.16421 8.25 3.75 8.25C3.33579 8.25 3 8.58579 3 9V11C3 11.4142 3.33579 11.75 3.75 11.75C4.16421 11.75 4.5 11.4142 4.5 11V9Z" fill="black"/>
<path d="M16.25 8.25C16.6642 8.25 17 8.58579 17 9V11C17 11.4142 16.6642 11.75 16.25 11.75C15.8358 11.75 15.5 11.4142 15.5 11V9C15.5 8.58579 15.8358 8.25 16.25 8.25Z" fill="black"/>
<path d="M11 4.5C11.4142 4.5 11.75 4.16421 11.75 3.75C11.75 3.33579 11.4142 3 11 3H9C8.58579 3 8.25 3.33579 8.25 3.75C8.25 4.16421 8.58579 4.5 9 4.5L11 4.5Z" fill="black"/>
<path d="M11.75 16.25C11.75 16.6642 11.4142 17 11 17H9C8.58579 17 8.25 16.6642 8.25 16.25C8.25 15.8358 8.58579 15.5 9 15.5H11C11.4142 15.5 11.75 15.8358 11.75 16.25Z" fill="black"/>
<path fill-rule="evenodd" clip-rule="evenodd" d="M6 9C6 7.34315 7.34315 6 9 6H11C12.6569 6 14 7.34315 14 9V11C14 12.6569 12.6569 14 11 14H9C7.34315 14 6 12.6569 6 11V9ZM9 7.5H11C11.8284 7.5 12.5 8.17157 12.5 9V11C12.5 11.8284 11.8284 12.5 11 12.5H9C8.17157 12.5 7.5 11.8284 7.5 11V9C7.5 8.17157 8.17157 7.5 9 7.5Z" fill="black"/>
</svg>

<svg viewBox="0 0 20 20" fill="none" xmlns="http://www.w3.org/2000/svg"><path d="M3 5.75a2.75 2.75 0 0 1 2.75-2.75.75.75 0 0 1 0 1.5c-.69 0-1.25.56-1.25 1.25a.75.75 0 0 1-1.5 0Z" fill="#5C5F62"/><path d="M5.75 17a2.75 2.75 0 0 1-2.75-2.75.75.75 0 0 1 1.5 0c0 .69.56 1.25 1.25 1.25a.75.75 0 0 1 0 1.5Z" fill="#5C5F62"/><path d="M17 5.75a2.75 2.75 0 0 0-2.75-2.75.75.75 0 0 0 0 1.5c.69 0 1.25.56 1.25 1.25a.75.75 0 0 0 1.5 0Z" fill="#5C5F62"/><path d="M17 14.25a2.75 2.75 0 0 1-2.75 2.75.75.75 0 0 1 0-1.5c.69 0 1.25-.56 1.25-1.25a.75.75 0 0 1 1.5 0Z" fill="#5C5F62"/><path d="M4.5 9a.75.75 0 0 0-1.5 0v2a.75.75 0 0 0 1.5 0v-2Z" fill="#5C5F62"/><path d="M16.25 8.25a.75.75 0 0 1 .75.75v2a.75.75 0 0 1-1.5 0v-2a.75.75 0 0 1 .75-.75Z" fill="#5C5F62"/><path d="M11 4.5a.75.75 0 0 0 0-1.5h-2a.75.75 0 0 0 0 1.5h2Z" fill="#5C5F62"/><path d="M11.75 16.25a.75.75 0 0 1-.75.75h-2a.75.75 0 0 1 0-1.5h2a.75.75 0 0 1 .75.75Z" fill="#5C5F62"/><path fill-rule="evenodd" clip-rule="evenodd" d="M6 9a3 3 0 0 1 3-3h2a3 3 0 0 1 3 3v2a3 3 0 0 1-3 3h-2a3 3 0 0 1-3-3v-2Zm3-1.5h2a1.5 1.5 0 0 1 1.5 1.5v2a1.5 1.5 0 0 1-1.5 1.5h-2a1.5 1.5 0 0 1-1.5-1.5v-2a1.5 1.5 0 0 1 1.5-1.5Z" fill="#5C5F62"/></svg>
